X:12
T: Graf und Nonne (Die Nonne)
N: Q0155K
O: Mitteleuropa, Schweiz, Aargau, Zufikon
R: Ballade, Standesunterschied, vergebliche Werbung, Liebe, Klage
M: 6/8
L: 1/16
K: Bb
F2 | B2A2G2F3DD2 | G4F2F4
B2 | F4D2G2F2E2 | E6D2z2
F2 | B2A2G2F3DD2 | G4F2F4
B2 | F4D2G2F2E2 | E6D2z2
B2 | c2e2e2c2A2F2 | B4d2d6
c3cc2e2d2c2 | B8z2
B2 | c2e2e2c2A2F2 | B4d2d6
c3cc2e2d2c2 | B8z2

